; generated by PrusaSlicer 2.2.0+ on 2021-01-11 at 02:57:52 UTC


;
;

;
;
; 

; external perimeters extrusion width = 0.45mm
; perimeters extrusion width = 0.45mm
; infill extrusion width = 0.45mm
; solid infill extrusion width = 0.45mm
; top infill extrusion width = 0.40mm
; support material extrusion width = 0.35mm
; first layer extrusion width = 0.42mm

M73 P0 R125
M201 X1250 Y1250 Z400 E5000 ; sets maximum accelerations, mm/sec^2
M203 X180 Y180 Z12 E80 ; sets maximum feedrates, mm/sec
M204 P1250 R1250 T1250 ; sets acceleration (P, T) and retract acceleration (R), mm/sec^2
M205 X8.00 Y8.00 Z2.00 E10.00 ; sets the jerk limits, mm/sec
M205 S0 T0 ; sets the minimum extruding and travel feed rate, mm/sec
M107
G90 ; use absolute coordinates
M83 ; extruder relative mode
M104 S170 ; set extruder temp for bed leveling
M140 S68 ; set bed temp
M109 R170 ; wait for bed leveling temp
M190 S68 ; wait for bed temp
G28 ; home all without mesh bed level
G29 ; mesh bed leveling 
M104 S215 ; set extruder temp
G92 E0.0
G1 Y-2.0 X179 F2400
G1 Z3 F720
M109 S215 ; wait for extruder temp

; intro line
G1 X170 F1000
G1 Z0.2 F720
G1 X110.0 E8.0 F900
M73 P0 R125
G1 X40.0 E10.0 F700
G92 E0.0

M221 S95 ; set flow
G21 ; set units to millimeters
G90 ; use absolute coordinates
M83 ; use relative distances for extrusion
M900 K0.2 ; Filament gcode LA 1.5
; ; Filament gcode LA 1.0
;BEFORE_LAYER_CHANGE
G92 E0.0
;0.2


G1 Z0.200 F9000.000
;AFTER_LAYER_CHANGE
;0.2
G1 E-3.20000 F4200.00000
G1 Z0.400 F9000.000
G1 X25.689 Y69.282
G1 Z0.200
G1 E3.20000 F2400.00000
M204 S800
G1 F1200.000
G1 X26.624 Y69.076 E0.03001
G1 X99.057 Y68.907 E2.27109
G1 X102.296 Y69.087 E0.10172
G1 X103.041 Y69.283 E0.02414
G1 X103.589 Y69.624 E0.02024
G1 X104.028 Y70.102 E0.02036
G1 X104.319 Y70.678 E0.02024
G1 X104.444 Y71.312 E0.02024
G1 X104.449 Y147.117 E2.37682
G1 X104.282 Y147.972 E0.02731
G1 X103.816 Y148.712 E0.02743
G1 X103.448 Y149.036 E0.01538
G1 X103.024 Y149.276 E0.01526
G1 X102.076 Y149.475 E0.03036
G1 X26.637 Y149.475 E2.36536
G1 X25.778 Y149.307 E0.02743
G1 X25.041 Y148.842 E0.02731
G1 X24.720 Y148.477 E0.01526
G1 X24.478 Y148.050 E0.01538
G1 X24.279 Y147.103 E0.03036
G1 X24.279 Y71.434 E2.37253
G1 X24.445 Y70.579 E0.02731
G1 X24.911 Y69.839 E0.02743
G1 X25.641 Y69.316 E0.02813
M204 S1250
G1 E-2.24000 F4200.00000
G1 F7200.000
G1 X26.624 Y69.076 E-0.56110
G1 X27.257 Y69.075 E-0.35090
G1 E-0.04800 F4200.00000
G1 Z0.400 F9000.000
G1 X22.114 Y69.561
G1 Z0.200
G1 E3.20000 F2400.00000
M204 S800
G1 F1200.000
G1 X22.864 Y68.332 E0.04514
G1 X23.934 Y67.353 E0.04549
G1 X25.054 Y66.799 E0.03917
G1 X26.223 Y66.556 E0.03743
G1 X98.678 Y66.553 E2.27177
G1 X98.893 Y66.576 E0.00678
G1 X99.494 Y66.551 E0.01889
G1 X102.582 Y66.558 E0.09680
G1 X103.898 Y66.888 E0.04255
G1 X104.826 Y67.371 E0.03280
G1 X105.918 Y68.400 E0.04704
G1 X106.552 Y69.422 E0.03772
G1 X106.974 Y70.979 E0.05057
G1 X106.974 Y147.607 E2.40264
G1 X106.674 Y148.835 E0.03961
G1 X106.229 Y149.700 E0.03051
G1 X105.353 Y150.674 E0.04106
G1 X104.395 Y151.340 E0.03660
G1 X103.227 Y151.740 E0.03872
G1 X101.951 Y151.799 E0.04003
G1 X101.665 Y151.830 E0.00905
G1 X29.355 Y151.830 E2.26720
G1 X28.751 Y151.805 E0.01898
G1 X28.511 Y151.830 E0.00755
G1 X27.063 Y151.830 E0.04540
G1 X26.802 Y151.803 E0.00822
G1 X25.853 Y151.793 E0.02976
G1 X24.960 Y151.603 E0.02863
G1 X23.500 Y150.797 E0.05229
G1 X22.853 Y150.149 E0.02871
G1 X22.397 Y149.558 E0.02340
G1 X21.754 Y147.644 E0.06331
G1 X21.761 Y70.938 E2.40507
G1 X22.099 Y69.619 E0.04270
M204 S1250
G1 X22.463 Y69.714 F9000.000
M204 S800
G1 F1200.000
G1 X23.139 Y68.591 E0.04110
G1 X24.127 Y67.677 E0.04219
G1 X25.157 Y67.163 E0.03608
G1 X26.243 Y66.933 E0.03481
G1 X98.666 Y66.930 E2.27079
G1 X98.879 Y66.954 E0.00670
G1 X99.498 Y66.928 E0.01943
G1 X102.557 Y66.935 E0.09593
G1 X103.783 Y67.248 E0.03965
G1 X104.627 Y67.692 E0.02990
G1 X105.641 Y68.656 E0.04388
G1 X106.196 Y69.549 E0.03296
G1 X106.597 Y71.004 E0.04734
G1 X106.597 Y147.584 E2.40110
G1 X106.314 Y148.721 E0.03674
G1 X105.907 Y149.503 E0.02765
G1 X105.089 Y150.404 E0.03815
G1 X104.247 Y150.992 E0.03217
G1 X103.131 Y151.374 E0.03701
G1 X101.923 Y151.423 E0.03791
G1 X101.654 Y151.453 E0.00850
G1 X29.359 Y151.453 E2.26674
G1 X28.737 Y151.427 E0.01952
G1 X28.500 Y151.453 E0.00748
G1 X27.074 Y151.453 E0.04472
G1 X26.824 Y151.426 E0.00787
G1 X25.912 Y151.420 E0.02859
G1 X25.066 Y151.240 E0.02714
G1 X23.748 Y150.511 E0.04721
G1 X23.128 Y149.891 E0.02749
G1 X22.715 Y149.354 E0.02127
G1 X22.131 Y147.614 E0.05754
G1 X22.138 Y70.963 E2.40334
G1 X22.448 Y69.772 E0.03858
M204 S1250
G1 X22.812 Y69.869 F9000.000
M204 S800
G1 F1200.000
G1 X22.829 Y69.807 E0.00200
G1 X23.416 Y68.849 E0.03524
G1 X24.322 Y68.001 E0.03892
G1 X25.260 Y67.526 E0.03297
G1 X26.263 Y67.310 E0.03216
G1 X98.655 Y67.307 E2.26978
M73 P0 R124
G1 X98.864 Y67.332 E0.00660
G1 X99.501 Y67.305 E0.02001
G1 X102.532 Y67.312 E0.09503
G1 X103.665 Y67.607 E0.03671
G1 X104.425 Y68.012 E0.02701
G1 X105.363 Y68.912 E0.04073
G1 X105.840 Y69.677 E0.02829
G1 X106.220 Y71.031 E0.04408
G1 X106.220 Y147.560 E2.39953
G1 X105.954 Y148.606 E0.03382
G1 X105.585 Y149.305 E0.02480
G1 X104.825 Y150.134 E0.03527
G1 X104.100 Y150.644 E0.02778
G1 X103.036 Y151.008 E0.03527
G1 X101.895 Y151.047 E0.03579
G1 X101.642 Y151.076 E0.00798
G1 X29.363 Y151.076 E2.26625
G1 X28.723 Y151.049 E0.02009
G1 X28.489 Y151.076 E0.00740
G1 X27.085 Y151.076 E0.04401
G1 X26.846 Y151.048 E0.00753
G1 X25.971 Y151.047 E0.02744
G1 X25.172 Y150.877 E0.02564
G1 X23.996 Y150.226 E0.04213
G1 X23.404 Y149.634 E0.02627
G1 X23.033 Y149.149 E0.01912
G1 X22.508 Y147.583 E0.05180
G1 X22.515 Y70.988 E2.40160
G1 X22.797 Y69.927 E0.03442
M204 S1250
G1 X23.185 Y69.932 F9000.000
M204 S800
G1 F1200.000
G1 X23.693 Y69.105 E0.03043
G1 X24.519 Y68.324 E0.03566
G1 X25.366 Y67.889 E0.02985
G1 X26.284 Y67.687 E0.02946
G1 X98.642 Y67.684 E2.26874
G1 X98.847 Y67.710 E0.00649
G1 X99.505 Y67.682 E0.02063
G1 X102.507 Y67.689 E0.09412
G1 X103.546 Y67.965 E0.03372
G1 X104.223 Y68.331 E0.02411
G1 X105.084 Y69.166 E0.03762
G1 X105.485 Y69.807 E0.02370
G1 X105.842 Y71.057 E0.04078
G1 X105.842 Y147.536 E2.39792
G1 X105.595 Y148.488 E0.03086
G1 X105.265 Y149.105 E0.02193
G1 X104.562 Y149.864 E0.03244
G1 X103.952 Y150.296 E0.02344
G1 X102.941 Y150.642 E0.03349
G1 X101.867 Y150.670 E0.03369
G1 X101.630 Y150.699 E0.00748
G1 X29.367 Y150.699 E2.26575
G1 X28.708 Y150.671 E0.02070
G1 X28.477 Y150.699 E0.00729
G1 X27.097 Y150.699 E0.04326
G1 X26.869 Y150.671 E0.00721
G1 X26.030 Y150.674 E0.02631
G1 X25.278 Y150.514 E0.02411
G1 X24.244 Y149.941 E0.03705
G1 X23.679 Y149.376 E0.02503
G1 X23.352 Y148.946 E0.01695
G1 X22.885 Y147.553 E0.04608
G1 X22.892 Y71.013 E2.39984
G1 X23.169 Y69.990 E0.03324
M204 S1250
G1 X23.532 Y70.091 F9000.000
M204 S800
G1 F1200.000
G1 X23.971 Y69.360 E0.02672
G1 X24.718 Y68.645 E0.03243
G1 X25.474 Y68.251 E0.02672
G1 X26.305 Y68.064 E0.02672
G1 X98.628 Y68.061 E2.26764
G1 X98.821 Y68.088 E0.00609
G1 X99.330 Y68.080 E0.01596
G1 X99.520 Y68.059 E0.00601
G1 X102.480 Y68.066 E0.09280
G1 X103.424 Y68.323 E0.03068
G1 X104.018 Y68.648 E0.02121
G1 X104.804 Y69.420 E0.03454
G1 X105.131 Y69.938 E0.01922
G1 X105.465 Y71.085 E0.03744
G1 X105.465 Y147.511 E2.39628
G1 X105.237 Y148.368 E0.02783
G1 X104.946 Y148.902 E0.01907
G1 X104.299 Y149.593 E0.02966
G1 X103.803 Y149.948 E0.01915
G1 X102.848 Y150.275 E0.03165
G1 X101.840 Y150.293 E0.03161
G1 X101.618 Y150.322 E0.00703
G1 X29.384 Y150.322 E2.26484
G1 X29.193 Y150.301 E0.00602
G1 X28.683 Y150.294 E0.01599
G1 X28.464 Y150.322 E0.00692
G1 X27.110 Y150.322 E0.04247
G1 X26.891 Y150.294 E0.00690
G1 X26.088 Y150.301 E0.02520
G1 X25.384 Y150.151 E0.02257
G1 X24.492 Y149.656 E0.03198
G1 X23.955 Y149.119 E0.02379
G1 X23.671 Y148.743 E0.01477
G1 X23.262 Y147.522 E0.04038
G1 X23.269 Y71.039 E2.39807
G1 X23.516 Y70.149 E0.02898
M204 S1250
G1 E-2.24000 F4200.00000
G1 F7200.000
G1 X23.971 Y69.360 E-0.50435
G1 X24.503 Y68.852 E-0.40765
G1 E-0.04800 F4200.00000
G1 Z0.400 F9000.000
G1 X24.920 Y68.965
G1 Z0.200
G1 E3.20000 F2400.00000
M204 S800
G1 F1200.000
G1 X25.584 Y68.612 E0.02357
G1 X26.327 Y68.441 E0.02392
G1 X98.614 Y68.439 E2.26650
G1 X98.795 Y68.465 E0.00575
G1 X99.355 Y68.457 E0.01755
G1 X99.532 Y68.437 E0.00560
G1 X102.406 Y68.437 E0.09010
G1 X103.303 Y68.680 E0.02914
G1 X103.810 Y68.964 E0.01823
G1 X104.523 Y69.672 E0.03152
G1 X104.778 Y70.072 E0.01486
G1 X105.088 Y71.113 E0.03405
G1 X105.088 Y147.485 E2.39459
G1 X104.880 Y148.246 E0.02473
G1 X104.629 Y148.697 E0.01620
G1 X104.037 Y149.321 E0.02695
G1 X103.653 Y149.601 E0.01491
G1 X102.755 Y149.909 E0.02976
G1 X101.813 Y149.916 E0.02955
G1 X101.604 Y149.945 E0.00661
G1 X29.395 Y149.945 E2.26405
G1 X29.218 Y149.924 E0.00560
G1 X28.659 Y149.916 E0.01752
G1 X28.451 Y149.945 E0.00661
G1 X27.123 Y149.945 E0.04162
G1 X26.915 Y149.916 E0.00661
G1 X26.145 Y149.927 E0.02413
G1 X25.490 Y149.788 E0.02100
G1 X24.740 Y149.371 E0.02690
G1 X24.232 Y148.862 E0.02255
G1 X23.991 Y148.541 E0.01257
G1 X23.639 Y147.492 E0.03472
G1 X23.646 Y71.066 E2.39627
M73 P1 R123
G1 X23.896 Y70.188 E0.02862
G1 X24.251 Y69.614 E0.02116
G1 X24.877 Y69.007 E0.02735
M204 S1250
G1 E-2.24000 F4200.00000
G1 F7200.000
G1 X25.584 Y68.612 E-0.44856
G1 X26.327 Y68.441 E-0.42279
G1 X26.401 Y68.441 E-0.04064
G1 E-0.04800 F4200.00000
G1 Z0.400 F9000.000
G1 X103.143 Y69.022
G1 Z0.200
G1 E3.20000 F2400.00000
M204 S800
G1 F1200.000
G1 X102.380 Y68.814 E0.02478
G1 X100.780 Y68.814 E0.05016
M204 S1250
G1 E-2.24000 F4200.00000
G1 F7200.000
G1 X102.380 Y68.814 E-0.88661
G1 X102.425 Y68.826 E-0.02539
G1 E-0.04800 F4200.00000
G1 Z0.400 F9000.000
G1 X103.143 Y69.022
G1 Z0.200
G1 E3.20000 F2400.00000
M204 S800
G1 F1200.000
G1 X103.565 Y69.252 E0.01509
G1 X104.220 Y69.897 E0.02883
G1 X104.426 Y70.210 E0.01173
G1 X104.711 Y71.141 E0.03054
G1 X104.711 Y147.458 E2.39285
G1 X104.524 Y148.121 E0.02162
G1 X104.339 Y148.455 E0.01196
G1 X103.774 Y149.051 E0.02573
G1 X103.502 Y149.254 E0.01066
G1 X103.358 Y149.303 E0.00475
M204 S1250
G1 E-2.24000 F4200.00000
G1 F7200.000
G1 X103.502 Y149.254 E-0.08396
G1 X103.774 Y149.051 E-0.18833
G1 X104.339 Y148.455 E-0.45476
G1 X104.500 Y148.163 E-0.18494
G1 E-0.04800 F4200.00000
G1 Z0.400 F9000.000
G1 X25.621 Y149.431
G1 Z0.200
G1 E3.20000 F2400.00000
M204 S800
G1 F1200.000
G1 X24.989 Y149.086 E0.02260
G1 X24.509 Y148.606 E0.02128
G1 X24.312 Y148.341 E0.01034
G1 X24.016 Y147.461 E0.02911
G1 X24.023 Y71.094 E2.39443
G1 X24.250 Y70.320 E0.02530
G1 X24.532 Y69.866 E0.01673
G1 X25.122 Y69.285 E0.02597
G1 X25.738 Y68.957 E0.02190
G1 X26.348 Y68.818 E0.01961
G1 X57.619 Y68.815 E0.98047
M204 S1250
G1 X57.851 Y69.192 F9000.000
M204 S800
G1 F1200.000
G1 X57.953 Y69.207 E0.00324
G1 X58.059 Y69.191 E0.00335
M204 S1250
G1 X58.278 Y69.191 F9000.000
M204 S800
G1 F1200.000
G1 X59.352 Y69.191 E0.03369
G1 X59.462 Y69.207 E0.00346
G1 X59.571 Y69.191 E0.00346
G1 X60.861 Y69.191 E0.04044
G1 X60.970 Y69.207 E0.00346
G1 X61.079 Y69.191 E0.00346
G1 X62.369 Y69.191 E0.04044
G1 X62.478 Y69.207 E0.00346
G1 X62.587 Y69.191 E0.00346
G1 X63.877 Y69.191 E0.04044
G1 X63.987 Y69.207 E0.00346
G1 X64.096 Y69.191 E0.00346
G1 X65.386 Y69.191 E0.04044
G1 X65.495 Y69.207 E0.00346
G1 X65.604 Y69.191 E0.00346
G1 X66.894 Y69.191 E0.04044
G1 X67.003 Y69.207 E0.00346
G1 X67.112 Y69.191 E0.00346
G1 X68.402 Y69.191 E0.04044
G1 X68.512 Y69.207 E0.00346
G1 X68.621 Y69.191 E0.00346
G1 X69.911 Y69.191 E0.04044
G1 X70.020 Y69.207 E0.00346
G1 X70.129 Y69.191 E0.00346
G1 X71.419 Y69.191 E0.04044
G1 X71.528 Y69.207 E0.00346
G1 X71.637 Y69.191 E0.00346
G1 X72.927 Y69.191 E0.04044
G1 X73.036 Y69.207 E0.00346
G1 X73.146 Y69.191 E0.00346
G1 X74.436 Y69.191 E0.04044
G1 X74.545 Y69.207 E0.00346
G1 X74.654 Y69.191 E0.00346
G1 X75.944 Y69.191 E0.04044
G1 X76.053 Y69.207 E0.00346
G1 X76.162 Y69.191 E0.00346
G1 X77.452 Y69.191 E0.04044
G1 X77.561 Y69.207 E0.00346
G1 X77.671 Y69.191 E0.00346
G1 X78.961 Y69.191 E0.04044
G1 X79.070 Y69.207 E0.00346
G1 X79.179 Y69.191 E0.00346
G1 X80.469 Y69.191 E0.04044
G1 X80.578 Y69.207 E0.00346
G1 X80.687 Y69.191 E0.00346
G1 X81.977 Y69.191 E0.04044
G1 X82.086 Y69.207 E0.00346
G1 X82.196 Y69.191 E0.00346
G1 X83.485 Y69.191 E0.04044
G1 X83.595 Y69.207 E0.00346
G1 X83.704 Y69.191 E0.00346
G1 X84.994 Y69.191 E0.04044
G1 X85.103 Y69.207 E0.00346
G1 X85.212 Y69.191 E0.00346
G1 X86.502 Y69.191 E0.04044
G1 X86.611 Y69.207 E0.00346
G1 X86.721 Y69.191 E0.00346
G1 X88.010 Y69.191 E0.04044
G1 X88.120 Y69.207 E0.00346
G1 X88.229 Y69.191 E0.00346
G1 X89.519 Y69.191 E0.04044
G1 X89.628 Y69.207 E0.00346
G1 X89.737 Y69.191 E0.00346
G1 X91.027 Y69.191 E0.04044
G1 X91.136 Y69.207 E0.00346
G1 X91.246 Y69.191 E0.00346
G1 X92.535 Y69.191 E0.04044
G1 X92.645 Y69.207 E0.00346
G1 X92.754 Y69.191 E0.00346
G1 X94.044 Y69.191 E0.04044
G1 X94.153 Y69.207 E0.00346
G1 X94.262 Y69.191 E0.00346
G1 X95.552 Y69.191 E0.04044
G1 X95.661 Y69.207 E0.00346
G1 X95.770 Y69.191 E0.00346
G1 X97.060 Y69.191 E0.04044
G1 X97.170 Y69.207 E0.00346
G1 X97.279 Y69.191 E0.00346
G1 X98.557 Y69.191 E0.04007
G1 X98.742 Y69.220 E0.00589
G1 X99.410 Y69.210 E0.02094
G1 X99.558 Y69.191 E0.00467
G1 X100.770 Y69.191 E0.03800
M204 S1250
G1 X100.869 Y69.196 F9000.000
M204 S800
G1 F1200.000
G1 X100.973 Y69.202 E0.00326
M204 S1250
G1 E-2.24000 F4200.00000
G1 F7200.000
G1 X100.869 Y69.196 E-0.05764
G1 E-0.90236 F4200.00000
G1 Z0.400 F9000.000
G1 X56.526 Y69.195
G1 Z0.200
G1 E3.20000 F2400.00000
M204 S800
G1 F1200.000
G1 X56.366 Y69.195 E0.00501
M204 S1250
G1 X54.993 Y69.198 F9000.000
M204 S800
G1 F1200.000
G1 X54.882 Y69.199 E0.00349
M204 S1250
G1 X53.460 Y69.202 F9000.000
M204 S800
G1 F1200.000
G1 X53.397 Y69.202 E0.00198
M204 S1250
G1 X51.927 Y69.206 F9000.000
M204 S800
G1 F1200.000
G1 X51.913 Y69.206 E0.00046
M204 S1250
G1 E-2.24000 F4200.00000
G1 F7200.000
G1 X51.927 Y69.206 E-0.00814
G1 E-0.95186 F4200.00000
G1 Z0.400 F9000.000
G1 X25.784 Y149.088
G1 Z0.200
G1 E3.20000 F2400.00000
M204 S800
G1 F1200.000
G1 X26.178 Y149.173 E0.01262
G1 X26.968 Y149.161 E0.02479
G1 X27.154 Y149.191 E0.00589
G1 X28.420 Y149.191 E0.03970
G1 X28.606 Y149.161 E0.00589
G1 X29.273 Y149.171 E0.02094
G1 X29.421 Y149.191 E0.00467
G1 X30.694 Y149.191 E0.03992
G1 X30.804 Y149.175 E0.00346
G1 X30.913 Y149.191 E0.00346
G1 X32.203 Y149.191 E0.04044
G1 X32.312 Y149.175 E0.00346
G1 X32.421 Y149.191 E0.00346
G1 X33.711 Y149.191 E0.04044
G1 X33.820 Y149.175 E0.00346
G1 X33.929 Y149.191 E0.00346
G1 X35.219 Y149.191 E0.04044
G1 X35.329 Y149.175 E0.00346
G1 X35.438 Y149.191 E0.00346
G1 X36.728 Y149.191 E0.04044
G1 X36.837 Y149.175 E0.00346
G1 X36.946 Y149.191 E0.00346
G1 X38.236 Y149.191 E0.04044
G1 X38.345 Y149.175 E0.00346
G1 X38.454 Y149.191 E0.00346
G1 X39.744 Y149.191 E0.04044
G1 X39.853 Y149.175 E0.00346
G1 X39.963 Y149.191 E0.00346
G1 X41.253 Y149.191 E0.04044
G1 X41.362 Y149.175 E0.00346
G1 X41.471 Y149.191 E0.00346
G1 X42.761 Y149.191 E0.04044
G1 X42.870 Y149.175 E0.00346
G1 X42.979 Y149.191 E0.00346
G1 X44.269 Y149.191 E0.04044
G1 X44.378 Y149.175 E0.00346
G1 X44.488 Y149.191 E0.00346
G1 X45.778 Y149.191 E0.04044
G1 X45.887 Y149.175 E0.00346
G1 X45.996 Y149.191 E0.00346
G1 X47.286 Y149.191 E0.04044
G1 X47.395 Y149.175 E0.00346
G1 X47.504 Y149.191 E0.00346
G1 X48.794 Y149.191 E0.04044
G1 X48.903 Y149.175 E0.00346
G1 X49.013 Y149.191 E0.00346
G1 X50.302 Y149.191 E0.04044
G1 X50.412 Y149.175 E0.00346
G1 X50.521 Y149.191 E0.00346
G1 X51.811 Y149.191 E0.04044
G1 X51.920 Y149.175 E0.00346
G1 X52.029 Y149.191 E0.00346
G1 X53.319 Y149.191 E0.04044
G1 X53.428 Y149.175 E0.00346
G1 X53.538 Y149.191 E0.00346
G1 X54.827 Y149.191 E0.04044
G1 X54.937 Y149.175 E0.00346
G1 X55.046 Y149.191 E0.00346
G1 X56.336 Y149.191 E0.04044
G1 X56.445 Y149.175 E0.00346
G1 X56.554 Y149.191 E0.00346
G1 X57.844 Y149.191 E0.04044
G1 X57.953 Y149.175 E0.00346
G1 X58.063 Y149.191 E0.00346
G1 X59.352 Y149.191 E0.04044
G1 X59.462 Y149.175 E0.00346
G1 X59.571 Y149.191 E0.00346
G1 X60.861 Y149.191 E0.04044
G1 X60.970 Y149.175 E0.00346
G1 X61.079 Y149.191 E0.00346
G1 X62.369 Y149.191 E0.04044
G1 X62.478 Y149.175 E0.00346
G1 X62.587 Y149.191 E0.00346
G1 X63.877 Y149.191 E0.04044
G1 X63.987 Y149.175 E0.00346
