; generated by PrusaSlicer 2.2.0+ on 2021-01-10 at 07:11:52 UTC


;
;

;
;
; 

; external perimeters extrusion width = 0.45mm
; perimeters extrusion width = 0.45mm
; infill extrusion width = 0.45mm
; solid infill extrusion width = 0.45mm
; top infill extrusion width = 0.40mm
; support material extrusion width = 0.35mm
; first layer extrusion width = 0.42mm

M73 P0 R122
M201 X1250 Y1250 Z400 E5000 ; sets maximum accelerations, mm/sec^2
M203 X180 Y180 Z12 E80 ; sets maximum feedrates, mm/sec
M204 P1250 R1250 T1250 ; sets acceleration (P, T) and retract acceleration (R), mm/sec^2
M205 X8.00 Y8.00 Z2.00 E10.00 ; sets the jerk limits, mm/sec
M205 S0 T0 ; sets the minimum extruding and travel feed rate, mm/sec
M107
G90 ; use absolute coordinates
M83 ; extruder relative mode
M104 S170 ; set extruder temp for bed leveling
M140 S60 ; set bed temp
M109 R170 ; wait for bed leveling temp
M190 S60 ; wait for bed temp
G28 ; home all without mesh bed level
G29 ; mesh bed leveling 
M104 S215 ; set extruder temp
G92 E0.0
G1 Y-2.0 X179 F2400
G1 Z3 F720
M109 S215 ; wait for extruder temp

; intro line
G1 X170 F1000
G1 Z0.2 F720
G1 X110.0 E8.0 F900
M73 P0 R122
G1 X40.0 E10.0 F700
G92 E0.0

M221 S95 ; set flow
G21 ; set units to millimeters
G90 ; use absolute coordinates
M83 ; use relative distances for extrusion
M900 K0.2 ; Filament gcode LA 1.5
; ; Filament gcode LA 1.0
;BEFORE_LAYER_CHANGE
G92 E0.0
;0.2


G1 Z0.200 F9000.000
;AFTER_LAYER_CHANGE
;0.2
G1 E-3.20000 F4200.00000
G1 Z0.400 F9000.000
G1 X51.326 Y50.091
G1 Z0.200
G1 E3.20000 F2400.00000
M204 S800
G1 F1200.000
G1 X52.261 Y49.886 E0.03001
G1 X124.693 Y49.716 E2.27109
G1 X127.933 Y49.896 E0.10172
G1 X128.677 Y50.092 E0.02414
G1 X129.225 Y50.433 E0.02024
G1 X129.664 Y50.912 E0.02036
G1 X129.955 Y51.488 E0.02024
G1 X130.081 Y52.121 E0.02024
G1 X130.085 Y127.926 E2.37682
G1 X129.918 Y128.781 E0.02731
G1 X129.453 Y129.522 E0.02743
G1 X129.084 Y129.845 E0.01538
G1 X128.660 Y130.085 E0.01526
G1 X127.713 Y130.284 E0.03036
G1 X52.273 Y130.284 E2.36536
G1 X51.414 Y130.116 E0.02743
G1 X50.677 Y129.652 E0.02731
G1 X50.356 Y129.286 E0.01526
G1 X50.114 Y128.860 E0.01538
G1 X49.915 Y127.912 E0.03036
G1 X49.915 Y52.244 E2.37253
G1 X50.082 Y51.388 E0.02731
G1 X50.547 Y50.648 E0.02743
G1 X51.277 Y50.126 E0.02813
M204 S1250
G1 E-2.24000 F4200.00000
G1 F7200.000
G1 X52.261 Y49.886 E-0.56110
G1 X52.894 Y49.884 E-0.35090
G1 E-0.04800 F4200.00000
G1 Z0.400 F9000.000
G1 X58.325 Y57.498
G1 Z0.200
G1 E3.20000 F2400.00000
M204 S800
G1 F1200.000
G1 X58.325 Y57.885 E0.01215
G1 X58.359 Y57.885 E0.00107
G1 X58.652 Y57.756 E0.01001
G1 X58.880 Y57.708 E0.00733
G1 X59.079 Y57.703 E0.00625
G1 X59.079 Y57.508 E0.00609
G1 X59.834 Y57.508 E0.02365
G1 X59.834 Y57.703 E0.00609
G1 X60.588 Y57.703 E0.02365
G1 X60.588 Y57.508 E0.00609
G1 X61.342 Y57.508 E0.02365
G1 X61.342 Y57.703 E0.00609
G1 X62.096 Y57.703 E0.02365
G1 X62.096 Y57.508 E0.00609
G1 X62.850 Y57.508 E0.02365
G1 X62.850 Y57.703 E0.00609
G1 X63.604 Y57.703 E0.02365
G1 X63.604 Y57.508 E0.00609
G1 X64.359 Y57.508 E0.02365
G1 X64.359 Y57.703 E0.00609
G1 X65.113 Y57.703 E0.02365
G1 X65.113 Y57.508 E0.00609
G1 X65.867 Y57.508 E0.02365
G1 X65.867 Y57.703 E0.00609
G1 X66.621 Y57.703 E0.02365
G1 X66.621 Y57.508 E0.00609
G1 X67.375 Y57.508 E0.02365
G1 X67.375 Y57.703 E0.00609
G1 X68.129 Y57.703 E0.02365
G1 X68.129 Y57.508 E0.00609
G1 X68.884 Y57.508 E0.02365
G1 X68.884 Y57.703 E0.00609
G1 X69.638 Y57.703 E0.02365
G1 X69.638 Y57.508 E0.00609
G1 X70.392 Y57.508 E0.02365
G1 X70.392 Y57.703 E0.00609
G1 X71.146 Y57.703 E0.02365
G1 X71.146 Y57.508 E0.00609
G1 X71.900 Y57.508 E0.02365
G1 X71.900 Y57.703 E0.00609
G1 X72.654 Y57.703 E0.02365
G1 X72.654 Y57.508 E0.00609
G1 X73.409 Y57.508 E0.02365
G1 X73.409 Y57.703 E0.00609
G1 X74.163 Y57.703 E0.02365
G1 X74.163 Y57.508 E0.00609
G1 X74.917 Y57.508 E0.02365
G1 X74.917 Y57.703 E0.00609
G1 X75.671 Y57.703 E0.02365
G1 X75.671 Y57.508 E0.00609
G1 X76.425 Y57.508 E0.02365
G1 X76.425 Y57.703 E0.00609
G1 X77.179 Y57.703 E0.02365
G1 X77.179 Y57.508 E0.00609
G1 X77.933 Y57.508 E0.02365
G1 X77.933 Y57.703 E0.00609
G1 X78.688 Y57.703 E0.02365
G1 X78.688 Y57.508 E0.00609
G1 X79.442 Y57.508 E0.02365
G1 X79.442 Y57.703 E0.00609
G1 X80.196 Y57.703 E0.02365
G1 X80.196 Y57.508 E0.00609
G1 X80.950 Y57.508 E0.02365
G1 X80.950 Y57.703 E0.00609
G1 X81.704 Y57.703 E0.02365
G1 X81.704 Y57.508 E0.00609
G1 X82.458 Y57.508 E0.02365
G1 X82.458 Y57.703 E0.00609
G1 X83.213 Y57.703 E0.02365
G1 X83.213 Y57.508 E0.00609
G1 X83.967 Y57.508 E0.02365
G1 X83.967 Y57.703 E0.00609
G1 X84.721 Y57.703 E0.02365
G1 X84.721 Y57.508 E0.00609
G1 X85.475 Y57.508 E0.02365
G1 X85.475 Y57.703 E0.00609
G1 X86.229 Y57.703 E0.02365
G1 X86.229 Y57.508 E0.00609
G1 X86.983 Y57.508 E0.02365
G1 X86.983 Y57.703 E0.00609
G1 X87.738 Y57.703 E0.02365
G1 X87.738 Y57.508 E0.00609
G1 X88.492 Y57.508 E0.02365
G1 X88.492 Y57.703 E0.00609
G1 X89.246 Y57.703 E0.02365
G1 X89.246 Y57.508 E0.00609
G1 X90.000 Y57.508 E0.02365
G1 X90.000 Y57.703 E0.00609
G1 X90.754 Y57.703 E0.02365
G1 X90.754 Y57.508 E0.00609
G1 X91.508 Y57.508 E0.02365
G1 X91.508 Y57.703 E0.00609
G1 X92.262 Y57.703 E0.02365
G1 X92.262 Y57.508 E0.00609
G1 X93.017 Y57.508 E0.02365
G1 X93.017 Y57.703 E0.00609
G1 X93.771 Y57.703 E0.02365
G1 X93.771 Y57.508 E0.00609
G1 X94.525 Y57.508 E0.02365
G1 X94.525 Y57.703 E0.00609
G1 X95.279 Y57.703 E0.02365
G1 X95.279 Y57.508 E0.00609
G1 X96.033 Y57.508 E0.02365
G1 X96.033 Y57.703 E0.00609
G1 X96.787 Y57.703 E0.02365
G1 X96.787 Y57.508 E0.00609
G1 X97.542 Y57.508 E0.02365
G1 X97.542 Y57.703 E0.00609
G1 X98.296 Y57.703 E0.02365
G1 X98.296 Y57.508 E0.00609
G1 X99.050 Y57.508 E0.02365
G1 X99.050 Y57.703 E0.00609
G1 X99.804 Y57.703 E0.02365
G1 X99.804 Y57.508 E0.00609
G1 X100.558 Y57.508 E0.02365
G1 X100.558 Y57.703 E0.00609
G1 X101.312 Y57.703 E0.02365
G1 X101.312 Y57.508 E0.00609
G1 X102.067 Y57.508 E0.02365
G1 X102.067 Y57.703 E0.00609
G1 X102.821 Y57.703 E0.02365
G1 X102.821 Y57.508 E0.00609
G1 X103.575 Y57.508 E0.02365
G1 X103.575 Y57.703 E0.00609
G1 X104.329 Y57.703 E0.02365
G1 X104.329 Y57.508 E0.00609
G1 X105.083 Y57.508 E0.02365
G1 X105.083 Y57.703 E0.00609
G1 X105.837 Y57.703 E0.02365
G1 X105.837 Y57.508 E0.00609
G1 X106.592 Y57.508 E0.02365
G1 X106.592 Y57.703 E0.00609
G1 X107.346 Y57.703 E0.02365
G1 X107.346 Y57.508 E0.00609
G1 X108.100 Y57.508 E0.02365
G1 X108.100 Y57.703 E0.00609
G1 X108.854 Y57.703 E0.02365
G1 X108.854 Y57.508 E0.00609
G1 X109.608 Y57.508 E0.02365
G1 X109.608 Y57.703 E0.00609
G1 X110.362 Y57.703 E0.02365
G1 X110.362 Y57.508 E0.00609
G1 X111.116 Y57.508 E0.02365
G1 X111.116 Y57.703 E0.00609
G1 X111.871 Y57.703 E0.02365
G1 X111.871 Y57.508 E0.00609
G1 X112.625 Y57.508 E0.02365
G1 X112.625 Y57.703 E0.00609
G1 X113.379 Y57.703 E0.02365
G1 X113.379 Y57.508 E0.00609
G1 X114.133 Y57.508 E0.02365
G1 X114.133 Y57.703 E0.00609
G1 X114.887 Y57.703 E0.02365
G1 X114.887 Y57.508 E0.00609
G1 X115.641 Y57.508 E0.02365
G1 X115.641 Y57.703 E0.00609
G1 X116.396 Y57.703 E0.02365
G1 X116.396 Y57.508 E0.00609
G1 X117.150 Y57.508 E0.02365
G1 X117.150 Y57.703 E0.00609
G1 X117.904 Y57.703 E0.02365
G1 X117.904 Y57.508 E0.00609
G1 X118.658 Y57.508 E0.02365
G1 X118.658 Y57.703 E0.00609
G1 X119.412 Y57.703 E0.02365
G1 X119.412 Y57.508 E0.00609
G1 X120.166 Y57.508 E0.02365
G1 X120.166 Y57.703 E0.00609
G1 X120.921 Y57.703 E0.02365
G1 X120.921 Y57.508 E0.00609
G1 X121.112 Y57.508 E0.00601
G1 X121.428 Y57.575 E0.01012
G1 X121.675 Y57.683 E0.00845
G1 X121.675 Y58.055 E0.01165
M204 S1250
G1 X122.429 Y58.185 F9000.000
M204 S800
G1 F1200.000
G1 X122.429 Y121.815 E1.99506
M204 S1250
G1 X121.675 Y122.502 F9000.000
M204 S800
G1 F1200.000
G1 X121.675 Y122.115 E0.01215
G1 X121.641 Y122.115 E0.00107
G1 X121.348 Y122.244 E0.01002
G1 X121.120 Y122.292 E0.00733
G1 X120.921 Y122.297 E0.00625
G1 X120.921 Y122.492 E0.00609
G1 X120.166 Y122.492 E0.02365
G1 X120.166 Y122.297 E0.00609
G1 X119.412 Y122.297 E0.02365
G1 X119.412 Y122.492 E0.00609
G1 X118.658 Y122.492 E0.02365
G1 X118.658 Y122.297 E0.00609
G1 X117.904 Y122.297 E0.02365
G1 X117.904 Y122.492 E0.00609
G1 X117.150 Y122.492 E0.02365
G1 X117.150 Y122.297 E0.00609
G1 X116.396 Y122.297 E0.02365
G1 X116.396 Y122.492 E0.00609
G1 X115.641 Y122.492 E0.02365
G1 X115.641 Y122.297 E0.00609
G1 X114.887 Y122.297 E0.02365
G1 X114.887 Y122.492 E0.00609
G1 X114.133 Y122.492 E0.02365
G1 X114.133 Y122.297 E0.00609
G1 X113.379 Y122.297 E0.02365
G1 X113.379 Y122.492 E0.00609
G1 X112.625 Y122.492 E0.02365
G1 X112.625 Y122.297 E0.00609
G1 X111.871 Y122.297 E0.02365
G1 X111.871 Y122.492 E0.00609
G1 X111.116 Y122.492 E0.02365
G1 X111.116 Y122.297 E0.00609
G1 X110.362 Y122.297 E0.02365
G1 X110.362 Y122.492 E0.00609
G1 X109.608 Y122.492 E0.02365
G1 X109.608 Y122.297 E0.00609
G1 X108.854 Y122.297 E0.02365
G1 X108.854 Y122.492 E0.00609
G1 X108.100 Y122.492 E0.02365
G1 X108.100 Y122.297 E0.00609
G1 X107.346 Y122.297 E0.02365
G1 X107.346 Y122.492 E0.00609
G1 X106.591 Y122.492 E0.02365
G1 X106.591 Y122.297 E0.00609
G1 X105.837 Y122.297 E0.02365
G1 X105.837 Y122.492 E0.00609
G1 X105.083 Y122.492 E0.02365
G1 X105.083 Y122.297 E0.00609
G1 X104.329 Y122.297 E0.02365
G1 X104.329 Y122.492 E0.00609
G1 X103.575 Y122.492 E0.02365
G1 X103.575 Y122.297 E0.00609
G1 X102.821 Y122.297 E0.02365
G1 X102.821 Y122.492 E0.00609
G1 X102.067 Y122.492 E0.02365
G1 X102.067 Y122.297 E0.00609
G1 X101.312 Y122.297 E0.02365
G1 X101.312 Y122.492 E0.00609
G1 X100.558 Y122.492 E0.02365
G1 X100.558 Y122.297 E0.00609
G1 X99.804 Y122.297 E0.02365
G1 X99.804 Y122.492 E0.00609
G1 X99.050 Y122.492 E0.02365
G1 X99.050 Y122.297 E0.00609
G1 X98.296 Y122.297 E0.02365
G1 X98.296 Y122.492 E0.00609
G1 X97.542 Y122.492 E0.02365
G1 X97.542 Y122.297 E0.00609
G1 X96.787 Y122.297 E0.02365
G1 X96.787 Y122.492 E0.00609
G1 X96.033 Y122.492 E0.02365
G1 X96.033 Y122.297 E0.00609
G1 X95.279 Y122.297 E0.02365
G1 X95.279 Y122.492 E0.00609
G1 X94.525 Y122.492 E0.02365
G1 X94.525 Y122.297 E0.00609
G1 X93.771 Y122.297 E0.02365
G1 X93.771 Y122.492 E0.00609
G1 X93.017 Y122.492 E0.02365
G1 X93.017 Y122.297 E0.00609
G1 X92.262 Y122.297 E0.02365
G1 X92.262 Y122.492 E0.00609
G1 X91.508 Y122.492 E0.02365
G1 X91.508 Y122.297 E0.00609
G1 X90.754 Y122.297 E0.02365
G1 X90.754 Y122.492 E0.00609
G1 X90.000 Y122.492 E0.02365
G1 X90.000 Y122.297 E0.00609
G1 X89.246 Y122.297 E0.02365
G1 X89.246 Y122.492 E0.00609
G1 X88.492 Y122.492 E0.02365
G1 X88.492 Y122.297 E0.00609
G1 X87.738 Y122.297 E0.02365
G1 X87.738 Y122.492 E0.00609
G1 X86.983 Y122.492 E0.02365
G1 X86.983 Y122.297 E0.00609
G1 X86.229 Y122.297 E0.02365
G1 X86.229 Y122.492 E0.00609
G1 X85.475 Y122.492 E0.02365
G1 X85.475 Y122.297 E0.00609
G1 X84.721 Y122.297 E0.02365
G1 X84.721 Y122.492 E0.00609
G1 X83.967 Y122.492 E0.02365
G1 X83.967 Y122.297 E0.00609
G1 X83.213 Y122.297 E0.02365
G1 X83.213 Y122.492 E0.00609
G1 X82.458 Y122.492 E0.02365
G1 X82.458 Y122.297 E0.00609
G1 X81.704 Y122.297 E0.02365
G1 X81.704 Y122.492 E0.00609
G1 X80.950 Y122.492 E0.02365
G1 X80.950 Y122.297 E0.00609
G1 X80.196 Y122.297 E0.02365
G1 X80.196 Y122.492 E0.00609
G1 X79.442 Y122.492 E0.02365
G1 X79.442 Y122.297 E0.00609
G1 X78.688 Y122.297 E0.02365
G1 X78.688 Y122.492 E0.00609
G1 X77.933 Y122.492 E0.02365
G1 X77.933 Y122.297 E0.00609
G1 X77.179 Y122.297 E0.02365
G1 X77.179 Y122.492 E0.00609
G1 X76.425 Y122.492 E0.02365
G1 X76.425 Y122.297 E0.00609
G1 X75.671 Y122.297 E0.02365
G1 X75.671 Y122.492 E0.00609
G1 X74.917 Y122.492 E0.02365
G1 X74.917 Y122.297 E0.00609
G1 X74.163 Y122.297 E0.02365
G1 X74.163 Y122.492 E0.00609
G1 X73.408 Y122.492 E0.02365
G1 X73.408 Y122.297 E0.00609
G1 X72.654 Y122.297 E0.02365
G1 X72.654 Y122.492 E0.00609
G1 X71.900 Y122.492 E0.02365
G1 X71.900 Y122.297 E0.00609
G1 X71.146 Y122.297 E0.02365
G1 X71.146 Y122.492 E0.00609
G1 X70.392 Y122.492 E0.02365
G1 X70.392 Y122.297 E0.00609
G1 X69.638 Y122.297 E0.02365
G1 X69.638 Y122.492 E0.00609
G1 X68.884 Y122.492 E0.02365
G1 X68.884 Y122.297 E0.00609
G1 X68.129 Y122.297 E0.02365
G1 X68.129 Y122.492 E0.00609
G1 X67.375 Y122.492 E0.02365
G1 X67.375 Y122.297 E0.00609
G1 X66.621 Y122.297 E0.02365
G1 X66.621 Y122.492 E0.00609
G1 X65.867 Y122.492 E0.02365
G1 X65.867 Y122.297 E0.00609
G1 X65.113 Y122.297 E0.02365
G1 X65.113 Y122.492 E0.00609
G1 X64.359 Y122.492 E0.02365
G1 X64.359 Y122.297 E0.00609
G1 X63.604 Y122.297 E0.02365
G1 X63.604 Y122.492 E0.00609
G1 X62.850 Y122.492 E0.02365
G1 X62.850 Y122.297 E0.00609
G1 X62.096 Y122.297 E0.02365
G1 X62.096 Y122.492 E0.00609
G1 X61.342 Y122.492 E0.02365
G1 X61.342 Y122.297 E0.00609
G1 X60.588 Y122.297 E0.02365
G1 X60.588 Y122.492 E0.00609
G1 X59.834 Y122.492 E0.02365
G1 X59.834 Y122.297 E0.00609
G1 X59.079 Y122.297 E0.02365
G1 X59.079 Y122.492 E0.00609
G1 X58.888 Y122.492 E0.00601
G1 X58.572 Y122.425 E0.01012
G1 X58.325 Y122.317 E0.00845
G1 X58.325 Y121.945 E0.01165
M204 S1250
G1 X57.571 Y121.815 F9000.000
M204 S800
G1 F1200.000
G1 X57.571 Y58.185 E1.99506
M204 S1250
G1 E-2.24000 F4200.00000
G1 F7200.000
G1 X57.571 Y59.831 E-0.91200
G1 E-0.04800 F4200.00000
G1 Z0.400 F9000.000
G1 X56.860 Y124.910
G1 Z0.200
G1 E3.20000 F2400.00000
M204 S800
G1 F1200.000
G1 X56.860 Y55.233 E1.77913
G1 X56.342 Y55.233 E0.01322
G1 X56.342 Y124.767 E1.77547
G1 X55.825 Y124.767 E0.01322
G1 X55.825 Y55.233 E1.77547
G1 X55.307 Y55.233 E0.01322
G1 X55.307 Y124.910 E1.77913
M204 S1250
G1 E-2.24000 F4200.00000
G1 F7200.000
G1 X55.307 Y123.264 E-0.91200
G1 E-0.04800 F4200.00000
G1 Z0.400 F9000.000
G1 X54.555 Y127.907
G1 Z0.200
G1 E3.20000 F2400.00000
M204 S800
G1 F1200.000
G1 X54.555 Y52.263 E2.37178
G1 X53.800 Y52.263 E0.02365
G1 X53.800 Y127.737 E2.36646
M73 P0 R120
G1 X53.046 Y127.737 E0.02365
G1 X53.046 Y52.263 E2.36646
G1 X52.292 Y52.263 E0.02365
G1 X52.292 Y127.907 E2.37178
M204 S1250
G1 E-2.24000 F4200.00000
G1 F7200.000
G1 X52.292 Y126.261 E-0.91200
G1 E-0.04800 F4200.00000
G1 Z0.400 F9000.000
G1 X124.693 Y124.910
G1 Z0.200
G1 E3.20000 F2400.00000
M204 S800
G1 F1200.000
G1 X124.693 Y55.233 E1.77913
G1 X124.175 Y55.233 E0.01322
G1 X124.175 Y124.767 E1.77547
G1 X123.658 Y124.767 E0.01322
G1 X123.658 Y55.233 E1.77547
G1 X123.140 Y55.233 E0.01322
G1 X123.140 Y124.767 E1.77547
G1 X122.622 Y124.767 E0.01322
G1 X122.622 Y121.836 E0.07484
G1 X122.473 Y122.085 E0.00742
G1 X122.238 Y122.346 E0.00896
G1 X122.104 Y122.449 E0.00431
G1 X122.104 Y124.767 E0.05919
G1 X121.586 Y124.767 E0.01322
G1 X121.586 Y122.736 E0.05185
G1 X121.175 Y122.834 E0.01079
G1 X121.069 Y122.839 E0.00272
G1 X121.069 Y124.767 E0.04923
G1 X120.551 Y124.767 E0.01322
G1 X120.551 Y122.839 E0.04923
G1 X120.033 Y122.839 E0.01322
G1 X120.033 Y124.767 E0.04923
G1 X119.515 Y124.767 E0.01322
G1 X119.515 Y122.839 E0.04923
G1 X118.997 Y122.839 E0.01322
G1 X118.997 Y124.767 E0.04923
G1 X118.479 Y124.767 E0.01322
G1 X118.479 Y122.839 E0.04923
G1 X117.962 Y122.839 E0.01322
G1 X117.962 Y124.767 E0.04923
G1 X117.444 Y124.767 E0.01322
G1 X117.444 Y122.839 E0.04923
G1 X116.926 Y122.839 E0.01322
G1 X116.926 Y124.767 E0.04923
G1 X116.408 Y124.767 E0.01322
G1 X116.408 Y122.839 E0.04923
G1 X115.890 Y122.839 E0.01322
G1 X115.890 Y124.767 E0.04923
G1 X115.373 Y124.767 E0.01322
G1 X115.373 Y122.839 E0.04923
G1 X114.855 Y122.839 E0.01322
G1 X114.855 Y124.767 E0.04923
G1 X114.337 Y124.767 E0.01322
G1 X114.337 Y122.839 E0.04923
G1 X113.819 Y122.839 E0.01322
G1 X113.819 Y124.767 E0.04923
G1 X113.301 Y124.767 E0.01322
G1 X113.301 Y122.839 E0.04923
G1 X112.784 Y122.839 E0.01322
G1 X112.784 Y124.767 E0.04923
G1 X112.266 Y124.767 E0.01322
G1 X112.266 Y122.839 E0.04923
G1 X111.748 Y122.839 E0.01322
G1 X111.748 Y124.767 E0.04923
G1 X111.230 Y124.767 E0.01322
G1 X111.230 Y122.839 E0.04923
G1 X110.712 Y122.839 E0.01322
G1 X110.712 Y124.767 E0.04923
G1 X110.195 Y124.767 E0.01322
G1 X110.195 Y122.839 E0.04923
G1 X109.677 Y122.839 E0.01322
G1 X109.677 Y124.767 E0.04923
G1 X109.159 Y124.767 E0.01322
G1 X109.159 Y122.839 E0.04923
G1 X108.641 Y122.839 E0.01322
G1 X108.641 Y124.767 E0.04923
G1 X108.123 Y124.767 E0.01322
G1 X108.123 Y122.839 E0.04923
G1 X107.606 Y122.839 E0.01322
G1 X107.606 Y124.767 E0.04923
G1 X107.088 Y124.767 E0.01322
G1 X107.088 Y122.839 E0.04923
G1 X106.570 Y122.839 E0.01322
